tools/download-figma-icons/icons/outlined-large/glass-fiber.svg

<svg width="64" height="64" viewBox="0 0 64 64" fill="none" xmlns="http://www.w3.org/2000/svg">
<path fill-rule="evenodd" clip-rule="evenodd" d="M54.754 10.0664C59.0899 9.0264 62.2349 9.0004 62.5009 9.0004C63.3289 9.0004 63.9989 9.6714 63.9999 10.4984C64.0009 11.3264 63.3299 11.9984 62.5029 12.0004C62.4329 12.0004 58.4389 12.0414 53.277 13.6024C51.988 16.3383 50.113 19.6003 47.4061 23.0812C52.583 21.8283 58.1929 21.9883 58.5509 22.0013C59.3779 22.0283 60.0269 22.7212 59.9999 23.5492C59.9739 24.3602 59.3079 25.0002 58.5009 25.0002C58.4893 25.0002 58.4778 25.0002 58.4658 24.9998C58.4612 24.9997 58.4566 24.9995 58.4519 24.9992C55.135 24.8952 45.7991 25.3242 42.5611 28.5612L36.5612 34.5611C36.2682 34.8541 35.8842 35.0001 35.5002 35.0001C35.1162 35.0001 34.7322 34.8541 34.4392 34.5611C33.8542 33.9751 33.8542 33.0251 34.4392 32.4391L40.4391 26.4392C44.4291 22.4502 47.1861 18.5213 49.078 15.1493C46.2201 16.4023 43.2441 18.1523 40.5191 20.6033L31.5612 29.5612C31.2682 29.8542 30.8842 30.0002 30.5003 30.0002C30.1163 30.0002 29.7323 29.8542 29.4393 29.5612C28.8543 28.9752 28.8543 28.0252 29.4393 27.4392L38.4392 18.4393C44.9051 11.9754 42.0901 2.02348 42.0621 1.92448C41.8291 1.12949 42.2831 0.295502 43.0761 0.0625045C43.8721 -0.173493 44.7041 0.279502 44.9391 1.07249C45.0431 1.42449 46.8181 7.64542 44.6411 13.9923C46.8361 12.7584 49.022 11.8304 51.078 11.1314C52.61 7.60042 53.013 5.30744 53.021 5.25945C53.155 4.44345 53.931 3.88546 54.742 4.02146C55.559 4.15446 56.113 4.92245 55.981 5.73844C55.954 5.90844 55.679 7.52142 54.754 10.0664ZM12.4544 60.695C13.4703 61.032 14.8543 61.265 15.6723 60.446L33.9801 41.9362C31.5441 41.4692 28.8482 39.9692 26.4402 37.5603C24.0812 35.2033 22.5962 32.4393 22.1372 29.9474L3.54946 48.3352C2.73747 49.1461 2.96947 50.5301 3.30647 51.5471C3.88046 53.2761 5.18744 55.2181 6.98442 57.0161C8.7824 58.814 10.7254 60.121 12.4544 60.695ZM28.5612 35.4393C32.1141 38.9903 36.0191 39.8592 37.4401 38.4393C38.0251 37.8543 38.9731 37.8543 39.558 38.4363C40.144 39.0193 40.148 39.9672 39.5671 40.5542L17.7993 62.561C16.8463 63.515 15.5863 64 14.1273 64C13.3114 64 12.4324 63.848 11.5094 63.542C9.3454 62.823 6.98442 61.259 4.86345 59.137C2.74147 57.0161 1.17749 54.6561 0.458498 52.4921C-0.394492 49.9211 -0.0494963 47.6892 1.43349 46.2082L23.4452 24.4334C24.0332 23.8514 24.9812 23.8564 25.5642 24.4424C26.1472 25.0284 26.1462 25.9754 25.5612 26.5604C24.3622 27.7584 24.9352 31.8133 28.5612 35.4393Z" fill="black"/>
</svg>

<svg width="64" height="64" viewBox="0 0 64 64" fill="none" xmlns="http://www.w3.org/2000/svg"><path fill-rule="evenodd" clip-rule="evenodd" d="M54.754 10.066C59.09 9.026 62.234 9 62.501 9a1.5 1.5 0 0 1 .002 3c-.07 0-4.064.041-9.226 1.602-1.289 2.736-3.164 5.998-5.87 9.48 5.176-1.254 10.786-1.094 11.144-1.08A1.5 1.5 0 0 1 58.5 25h-.035a.33.33 0 0 1-.014 0c-3.317-.105-12.653.324-15.89 3.561l-6 6a1.495 1.495 0 0 1-1.062.44 1.502 1.502 0 0 1-1.061-2.561l6-6c3.99-3.99 6.747-7.919 8.639-11.29-2.858 1.252-5.834 3.002-8.559 5.453l-8.958 8.958a1.495 1.495 0 0 1-1.06.44 1.502 1.502 0 0 1-1.061-2.561l9-9c6.465-6.465 3.65-16.417 3.622-16.516a1.5 1.5 0 0 1 2.877-.852c.104.352 1.88 6.573-.298 12.92a38.285 38.285 0 0 1 6.437-2.86c1.532-3.532 1.935-5.825 1.943-5.873a1.502 1.502 0 0 1 1.721-1.238 1.497 1.497 0 0 1 1.239 1.717c-.027.17-.302 1.783-1.227 4.328Zm-42.3 50.629c1.016.337 2.4.57 3.218-.249l18.308-18.51c-2.436-.467-5.132-1.967-7.54-4.376-2.359-2.357-3.844-5.12-4.303-7.613L3.55 48.335c-.812.811-.58 2.195-.243 3.212.574 1.73 1.881 3.671 3.678 5.47 1.798 1.797 3.741 3.104 5.47 3.678Zm16.107-25.256c3.553 3.551 7.458 4.42 8.88 3a1.5 1.5 0 0 1 2.126 2.115L17.8 62.561c-.953.954-2.213 1.439-3.672 1.439-.816 0-1.695-.152-2.618-.458-2.164-.719-4.525-2.283-6.646-4.405-2.122-2.12-3.686-4.48-4.405-6.645-.852-2.57-.507-4.803.975-6.284l22.012-21.775a1.5 1.5 0 0 1 2.116 2.127c-1.199 1.198-.626 5.253 3 8.88Z" fill="currentColor"/></svg>
